bootstrap/google-play.svg

<svg viewBox="0 0 16 16" xmlns="http://www.w3.org/2000/svg"><path d="M14.222 9.374c1.03-.61 1.03-2.14 0-2.748l-2.7-1.59 -3.21 2.96 3.2 2.96 2.69-1.59Zm-3.6 2.11l-3.05-2.81 -6.553 6.05c.2 1.029 1.36 1.61 2.303 1.05l7.29-4.295Zm-9.63 1.9V2.58L6.83 7.981 .99 13.37Zm.03-12.13L7.57 7.3l3.04-2.81 -7.3-4.3C2.36-.37 1.2.21 1.01 1.244Z"/></svg>

<svg xmlns="http://www.w3.org/2000/svg" width="16" height="16" fill="currentColor" class="bi bi-google-play" viewBox="0 0 16 16">
  <path d="M14.222 9.374c1.037-.61 1.037-2.137 0-2.748L11.528 5.04 8.32 8l3.207 2.96zm-3.595 2.116L7.583 8.68 1.03 14.73c.201 1.029 1.36 1.61 2.303 1.055zM1 13.396V2.603L6.846 8zM1.03 1.27l6.553 6.05 3.044-2.81L3.333.215C2.39-.341 1.231.24 1.03 1.27"/>
</svg>
